X:6
T:The Trysting Place
P:The Duchess of Gordon's New Strathspey
C:Robert Mackintosh
R:Strathspey (8x32)
B:RSCDS 35-6
Z:Anselm Lingnau <anselm@strathspey.org>
M:C
L:1/8
K:F
%%scale 0.82
|:C|"F"F>G F<C A,<C C>F|"Gm"D<G "G7"G>F "C"E<G "C7"Gc/B/|\
    "F"A<F "F7"F>C "Bb"D>F B>d |"C7"{d}cB/A/ {c}BA/G/ "F"AFFc|
    "F"F>G F<C A,<C C>F|"Gm"D<G "G7"G>F "C"E<G "C7"Gc/B/|\
    "F"A<F "F7"F>C "Bb"D>F B>d |"C7"{d}cB/A/ {c}BA/G/ "F"AFF||
c|"F"f>a "C"g>a "Dm"f>g "C"e<c|"Gm"d<g g>f "C7"e<g g>b|\
  "F"a<f e<f "Bb"d<f "F"c<A|"Gm"B<d "C7"c>B "F"AFFc|
  "F"f<a "C"g<a "Dm"(3fgf "Am"edc|"Gm"d<g "G7"g>f "C7"e<g g>b|\
  "F"a/g/f "C"g/f/e "Dm"f/e/d "C"e/d/c|"Gm"d<g "C7"c<e "F"f<FF|]

